X:1
T:Title
%%score { 1 | 2 }
L:1/8
M:2/4
K:Ab
V:1 treble nm="Grand Piano"
V:2 bass 
V:1
 z2 z[Q:1/4=84] [Ec]/[DB]/ | [CA][CE] [CE][CA] | [A,EG] [A,DF]2 [A,DF]/[A,DF]/ | %3
 [A,CE][CEA] [CEA][Ec] |[M:3/8] [EB]3 |[M:1/8] [Ec]/[DB]/ |[M:2/4] [CA][CE] [CE][CA] | %7
 [EG] F2 F/F/ | EA [EAc][DGB] |[M:3/8] [CA]3 |[M:1/8] [CEA]/[CEA]/ |[M:2/4] [B,EG] [EGB]2 G/G/ | %12
 A c2 c/c/ | [GB][Ge] [Ge]d |[M:3/8] c3 |[M:1/8] c/c/ |[M:2/4] B d2 B/B/ | c e2 [Fd]/[Fd]/ | %18
 cB AG |[M:3/8] [CEA]3 |] %20
V:2
 z2 z [A,,A,]/[A,,A,]/ | [A,,A,][A,,A,] [A,,A,][A,,A,] | D, D,2 D,/D,/ | A,,A,, A,,[A,,A,] | %4
[M:3/8] [E,G,]3 |[M:1/8] [A,,A,]/[A,,A,]/ |[M:2/4] [A,,A,][A,,A,] [A,,A,][A,,A,] | %7
 [D,A,] [D,A,D]2 [D,A,D]/[D,A,D]/ | [E,A,C][E,CE] E,E, |[M:3/8] A,,3 |[M:1/8] A,/A,/ | %11
[M:2/4] E, E,2 [E,DE]/[E,DE]/ | [A,CE] [A,EA]2 [A,EA]/[A,EA]/ | [E,E][E,D] [E,C][E,B,E] | %14
[M:3/8] [A,E]3 |[M:1/8] [A,E]/[A,E]/ |[M:2/4] [E,G,E] [E,B,E]2 [E,G,E]/[E,G,E]/ | %17
 [A,E] [A,CA]2[K:bass] [D,A,]/[D,A,]/ | [E,A,E][E,DE] [E,CE][E,B,E] |[M:3/8] A,,3 |] %20

